!!!OTL: 229. Abendgeſang auf der Flur.
!!!COM: G. C. Claudius
!!!ODT: 1780
!!!ARE: Europa, Mitteleuropa, Deutschland
!!!SCT: B0229
!!!TXL: @@DE
!!!YEM: Copyright 1995, estate of Helmut Schaffrath.
**kern	**text
*ICvox	*
*Ivox	*
*clefG2	*
*M6/8	*
*k[f#]	*
*G:	*
!LO:TX:a:t=Ruhig.	!
{8d	Komm,
=1	=1
4g	ſtil-
8g	-ler
8.aL	A-
16gJ	-bend,
8a	.
=2	=2
4.b	nie-
4a}	-der
{8dd	auf
=3	=3
8ddL	unſ-
8ccJ	.
8cc	-re
8ccL	klei-
8bJ	.
8b	-ne
=4	=4
(4.b/	Flur!
4a)}	.
{8d	Dir
=5	=5
4g	tö-
8g	-nen
8.aL	unſ-
16gJ	.
8a	-re
=6	=6
4.b	Lie-
4a}	-der,
{8d	wie
=7	=7
8eL	ſchön
8ccJ	.
8b	biſt
8aL	du,
8gJ	.
8f#	Na-
=8	=8
(4.a	-tur!
4g)}	.
==	==
!!!AGN: Tageszeiten - Lied, Abend
!!!GTL: Tageszeitenlieder
!!!ONB: ESAC (Essen Associative Code) Database: BOEHME
!!!AMT: compound duple
!!!AIN: vox
!!!EED: Helmut Schaffrath
!!!EEV: 1.0
!!@@COMMENT:"Gedicht von Georg Karl Claudius 1780. Die hier ſtehende älteſte Mel. iſt vom Dichter
!!ſelbſt und ʒur Volksweiſe geworden. - Man ſang auch vielfach: "Komm, ſtiller Abend, wieder.""
!!@@END:
!!!Text: G. K. Claudius
!!!URL-scan: https://archive.org/details/BoehmeVtLieder1895/page/n207/mode/2up
!!!ENC: Anna Maria Matuszewska
!!!EEV: 2024/02/07
*-	*-
